X: 696
T: Johnny Don't Come Home Drunk
B: jims roots
M:4/4
L:1/8
R: reel
Q: 1/4=100
K:Dmaj
V:1 
|: "D" f a2 f "A7" a2 g2 | "D" f2 e2 d4 | "G" BABc "Bm" dBAG | "A" F2 E2 E4 |
"D" f a2 f "A7" a2 g2 | "D" f2 e2 d4 | "G" BABc "A" dBAG | "D" FD "A" E2 "D" D4 :|
|: "D" FAAB A2 A2 | "D" FAAB A4 | "D" FAAB "G" dBAG | "A" F2 E2 E4 |
"D" FAAB A2 A2 | "A" BABc "D" d4 | "G" BABc "A" dBAG | "D" FD "A" E2 "D" D4 :|
% abcbook-tune_id 6298c25dd4b0369b4798240c


% abcbook-boost 0
% abcbook-tablature 
% abcbook-transpose 
% abcbook-lastupdated 1654178399277
% abcbook-soundfonts 
% abcbook-repeats 1
% Mix O'Lydian

